T: Maggie's Lilt
M: 4/4
L: 1/8
K: Dmaj
|:FG|AABA f2 f2|(3ABA BA f2 f2|gfed c2 d2|1 (3efe (3dcB A2:||:fg|aaba f2 f2|aaba f2 f2|1 gfed c2 d2|(3efe (3dcB A2:|2 gfed cABc|(3efe d2 d2||  (or ending - d2 f2 d2||)
